src/ui/cloud-download.svg

<?xml version="1.0" encoding="UTF-8"?><svg xmlns="http://www.w3.org/2000/svg" viewBox="0 0 32 32"><defs><style>.uuid-b83f0d70-e81f-477d-9789-7741e10f5bff{fill:none;}.uuid-b83f0d70-e81f-477d-9789-7741e10f5bff,.uuid-d0fb0831-2d9e-4400-9117-4c3cd04cd91a{stroke-width:0px;}.uuid-d0fb0831-2d9e-4400-9117-4c3cd04cd91a{fill:#151515;}</style></defs><g id="uuid-aaff0742-24f4-4d81-8dcf-96dba1595ffc"><rect class="uuid-b83f0d70-e81f-477d-9789-7741e10f5bff" width="32" height="32"/></g><g id="uuid-b585b3bc-8570-40e8-89ff-3767fd454888"><path class="uuid-d0fb0831-2d9e-4400-9117-4c3cd04cd91a" d="M27.9971,10.2285c.002-.0771.0029-.1533.0029-.2285,0-5.5142-4.4863-10-10-10-4.0703,0-7.6641,2.4199-9.2139,6.1104-.4238-.0732-.8535-.1104-1.2861-.1104C3.3643,6,0,9.3643,0,13.5s3.3643,7.5,7.5,7.5h3.5c.5527,0,1-.4478,1-1s-.4473-1-1-1h-3.5c-3.0322,0-5.5-2.4673-5.5-5.5s2.4678-5.5,5.5-5.5c.5518,0,1.0977.082,1.624.2441.5254.1597,1.083-.1323,1.248-.6553,1.0547-3.3428,4.1201-5.5889,7.6279-5.5889,4.4111,0,8,3.5889,8,8,0,.3145-.0234.623-.0586.9282-.0312.2666.0459.5347.2148.7437s.4141.3413.6816.3672c1.8027.1758,3.1621,1.6636,3.1621,3.4609,0,1.9297-1.5703,3.5-3.5,3.5h-5.5c-.5527,0-1,.4478-1,1s.4473,1,1,1h5.5c3.0322,0,5.5-2.4673,5.5-5.5,0-2.5-1.6641-4.6191-4.0029-5.2715Z"/><path class="uuid-d0fb0831-2d9e-4400-9117-4c3cd04cd91a" d="M20.293,24.293l-3.293,3.293v-12.5859c0-.5522-.4473-1-1-1s-1,.4478-1,1v12.5859l-3.293-3.293c-.3906-.3906-1.0234-.3906-1.4141,0s-.3906,1.0234,0,1.4141l4.6465,4.6465c.292.2925.6768.4385,1.0605.4385s.7686-.146,1.0605-.4385l4.6465-4.6465c.3906-.3906.3906-1.0234,0-1.4141s-1.0234-.3906-1.4141,0Z"/></g></svg>

<svg xmlns="http://www.w3.org/2000/svg" viewBox="0 0 32 32">
  <defs>
    <style>
      .uuid-d0fb0831-2d9e-4400-9117-4c3cd04cd91a{stroke-width:0;fill:#151515}
    </style>
  </defs>
  <path d="M0 0h32v32H0z" id="uuid-aaff0742-24f4-4d81-8dcf-96dba1595ffc" stroke-width="0" fill="none"/>
  <g id="uuid-b585b3bc-8570-40e8-89ff-3767fd454888">
    <path class="uuid-d0fb0831-2d9e-4400-9117-4c3cd04cd91a" d="M27.997 10.229A8.81 8.81 0 0 0 28 10c0-5.514-4.486-10-10-10a9.956 9.956 0 0 0-9.214 6.11A7.552 7.552 0 0 0 7.5 6C3.364 6 0 9.364 0 13.5S3.364 21 7.5 21H11a1 1 0 1 0 0-2H7.5A5.506 5.506 0 0 1 2 13.5a5.506 5.506 0 0 1 7.124-5.256 1.003 1.003 0 0 0 1.248-.655A7.966 7.966 0 0 1 18 1.999c4.411 0 8 3.59 8 8 0 .315-.023.624-.059.93a.998.998 0 0 0 .897 1.11A3.476 3.476 0 0 1 30 15.499c0 1.93-1.57 3.5-3.5 3.5H21a1 1 0 1 0 0 2h5.5c3.032 0 5.5-2.466 5.5-5.5a5.46 5.46 0 0 0-4.003-5.27Z"/>
    <path class="uuid-d0fb0831-2d9e-4400-9117-4c3cd04cd91a" d="M20.293 24.293 17 27.586V15a1 1 0 1 0-2 0v12.586l-3.293-3.293a1 1 0 1 0-1.414 1.414l4.646 4.647c.292.292.677.438 1.06.438s.77-.146 1.061-.438l4.647-4.647a1 1 0 1 0-1.414-1.414Z"/>
  </g>
</svg>
